src/assets/icon/handshake.svg

<?xml version="1.0" encoding="iso-8859-1"?>
<!-- Generator: Adobe Illustrator 19.0.0, SVG Export Plug-In . SVG Version: 6.00 Build 0)  -->
<svg version="1.1" id="Capa_1" xmlns="http://www.w3.org/2000/svg" xmlns:xlink="http://www.w3.org/1999/xlink" x="0px" y="0px"
	 viewBox="0 0 512.002 512.002" style="enable-background:new 0 0 512.002 512.002;" xml:space="preserve">
<g>
	<g>
		<path d="M510.66,331.614l-92.366-159.983c-2.762-4.783-8.877-6.423-13.66-3.66l-67.11,38.746c-2.297,1.326-3.973,3.51-4.659,6.072
			c-0.382,1.426-0.429,2.903-0.176,4.329h-13.356c-11.515,0-22.777,4.682-30.9,12.845l-17.47,17.559l-12.199-14.678
			c-8.307-9.995-20.525-15.727-33.521-15.727h-45.93c0.252-1.427,0.206-2.903-0.176-4.329c-0.687-2.562-2.362-4.746-4.659-6.072
			l-67.11-38.746c-4.784-2.761-10.899-1.123-13.66,3.66l-22.291,38.609c-2.762,4.783-1.123,10.899,3.66,13.66
			c4.783,2.762,10.9,1.124,13.66-3.66l17.291-29.949l49.79,28.746L73.45,361.7l-49.79-28.746l18.557-32.142
			c2.762-4.783,1.123-10.899-3.66-13.66c-4.781-2.761-10.898-1.123-13.66,3.66L1.34,331.614c-1.326,2.297-1.686,5.026-0.999,7.588
			s2.362,4.746,4.659,6.072l67.11,38.746c1.534,0.885,3.26,1.34,5,1.34c0.867,0,1.737-0.113,2.588-0.341
			c2.562-0.687,4.746-2.362,6.072-4.659l0.909-1.574l26.93,15.896c-0.037,6.761,2.301,13.56,7.104,19.027
			c4.684,5.331,10.925,8.5,17.455,9.428c0.073,6.836,2.559,13.35,7.119,18.539c4.56,5.189,10.7,8.494,17.469,9.445
			c0.08,6.594,2.42,13.191,7.104,18.521c4.688,5.335,10.935,8.506,17.47,9.431c0.076,6.599,2.417,13.203,7.104,18.538
			c5.648,6.428,13.562,9.714,21.513,9.714c6.53,0,13.085-2.216,18.431-6.729c0.144-0.113,0.285-0.231,0.423-0.354l15.921-14.097
			c1.074,1.643,2.33,3.202,3.772,4.644l12.728,12.728c5.654,5.653,13.08,8.48,20.506,8.48s14.853-2.827,20.506-8.48
			c5.136-5.136,7.931-11.736,8.401-18.469c6.733-0.47,13.333-3.265,18.469-8.401s7.931-11.736,8.401-18.469
			c6.733-0.47,13.333-3.265,18.469-8.401s7.931-11.736,8.401-18.469c6.733-0.47,13.333-3.265,18.469-8.401
			c8.381-8.381,10.543-20.657,6.499-31.054l26.975-18.267l3.912,6.775c1.326,2.297,3.51,3.973,6.072,4.659
			c0.852,0.228,1.722,0.341,2.588,0.341c1.74,0,3.467-0.455,5-1.34L507,345.275C511.783,342.513,513.422,336.397,510.66,331.614z
			 M294.092,489.374c-3.509,3.51-9.219,3.51-12.728,0l-12.728-12.728c-1.7-1.7-2.636-3.96-2.636-6.364
			c0-2.404,0.936-4.664,2.636-6.364s3.96-2.636,6.364-2.636c2.404,0,4.664,0.936,6.364,2.636l12.728,12.728
			C297.601,480.155,297.601,485.865,294.092,489.374z M320.962,462.504c-3.509,3.51-9.219,3.51-12.728,0l-12.728-12.728
			c-1.7-1.7-2.636-3.96-2.636-6.364c0-2.404,0.936-4.664,2.636-6.364s3.96-2.636,6.364-2.636c2.404,0,4.664,0.936,6.364,2.636
			l12.728,12.728C324.471,453.285,324.471,458.995,320.962,462.504z M347.832,435.633c-3.509,3.509-9.218,3.51-12.728,0
			l-12.728-12.728c-1.7-1.7-2.636-3.96-2.636-6.364c0-2.404,0.936-4.664,2.636-6.364s3.96-2.636,6.364-2.636
			c2.404,0,4.664,0.936,6.364,2.636l12.728,12.728C351.341,426.415,351.341,432.125,347.832,435.633z M374.702,408.763
			c-3.509,3.51-9.218,3.509-12.727,0l-12.728-12.728c-3.509-3.509-3.509-9.219,0-12.728c1.754-1.755,4.059-2.632,6.364-2.632
			c2.304,0,4.609,0.877,6.364,2.631l12.728,12.729C378.211,399.545,378.211,405.254,374.702,408.763z M383.004,376.054l-6.888-6.888
			c-11.308-11.307-29.706-11.306-41.012,0c-5.136,5.136-7.931,11.736-8.401,18.469c-6.733,0.47-13.333,3.265-18.469,8.401
			s-7.931,11.736-8.401,18.469c-6.733,0.47-13.333,3.265-18.469,8.401s-7.931,11.736-8.401,18.469
			c-6.733,0.47-13.333,3.265-18.469,8.401c-3.713,3.713-6.199,8.193-7.473,12.934l-25.149,22.267
			c-0.087,0.071-0.172,0.144-0.257,0.218c-3.567,3.134-9.021,2.783-12.157-0.786c-3.135-3.568-2.783-9.022,0.785-12.157
			c0.34-0.299,28.971-28.059,28.971-28.059c3.924-3.886,3.954-10.218,0.067-14.142c-3.886-3.924-10.218-3.955-14.142-0.067
			c0,0-25.896,25.678-26.062,25.869c-0.716,0.369-1.404,0.819-2.036,1.375c-3.567,3.135-9.021,2.783-12.157-0.787
			c-3.135-3.568-2.783-9.021,0.785-12.156c0.994-0.874,1.76-1.906,2.321-3.019l27.365-27.423c3.901-3.909,3.895-10.241-0.015-14.142
			c-3.908-3.901-10.24-3.895-14.142,0.015l-29.055,29.116c-0.472,0.473-0.883,0.982-1.241,1.517
			c-1.417,0.775-3.023,1.141-4.674,1.037c-2.296-0.148-4.397-1.183-5.917-2.912c-1.519-1.729-2.274-3.945-2.125-6.241
			c0.148-2.296,1.181-4.396,2.91-5.915c0.075-0.066,0.139-0.139,0.211-0.207c0.088-0.082,0.181-0.156,0.267-0.242l31.736-31.803
			c3.901-3.909,3.895-10.241-0.015-14.142c-3.909-3.901-10.241-3.895-14.142,0.015l-31.403,31.469
			c-3.569,3.003-8.918,2.621-12.013-0.901c-3.135-3.568-2.783-9.022,0.785-12.157c0.29-0.254,27.917-26.876,27.917-26.876
			c3.999-3.809,4.153-10.139,0.344-14.138c-3.81-4-10.14-4.154-14.138-0.344c0,0-29.15,28.065-29.767,28.755l-24.197-14.284
			l71.792-124.347h56.77c7.033,0,13.645,3.102,18.141,8.511l40.473,48.694c2.28,2.743,3.135,6.311,2.347,9.789
			c-0.788,3.479-3.099,6.33-6.338,7.822c-4.25,1.958-9.191,1.144-12.588-2.076l-43.397-41.121
			c-4.009-3.799-10.338-3.629-14.137,0.381c-3.799,4.009-3.628,10.338,0.381,14.137l2.8,2.653
			c-7.87,15.678-24.744,25.445-42.475,24.096l-0.212-0.016c-5.507-0.422-10.311,3.706-10.729,9.213
			c-0.419,5.507,3.706,10.311,9.213,10.729l0.215,0.016c1.586,0.121,3.164,0.18,4.738,0.18c22.037,0,42.631-11.618,54.203-30.05
			l25.645,24.3c5.979,5.665,13.69,8.629,21.536,8.629c4.446,0,8.936-0.953,13.174-2.905c8.933-4.114,15.304-11.975,17.478-21.567
			s-0.185-19.431-6.471-26.994l-15.432-18.567l18.806-18.902c4.396-4.418,10.491-6.952,16.722-6.952h24.197l68.764,119.102
			L383.004,376.054z M438.55,361.7l-82.367-142.663l49.79-28.746l82.366,142.663L438.55,361.7z"/>
	</g>
</g>
<g>
	<g>
		<path d="M61.469,247.471c-4.783-2.762-10.899-1.125-13.661,3.657l-0.65,1.126c-2.762,4.784-1.125,10.9,3.657,13.662
			c1.576,0.91,3.295,1.342,4.993,1.342c3.455,0,6.816-1.792,8.668-5l0.65-1.126C67.888,256.349,66.251,250.233,61.469,247.471z"/>
	</g>
</g>
<g>
	<g>
		<path d="M455.07,312.934c-1.86-1.86-4.44-2.93-7.07-2.93s-5.21,1.07-7.07,2.93c-1.86,1.86-2.93,4.44-2.93,7.07
			s1.07,5.21,2.93,7.07c1.86,1.859,4.44,2.93,7.07,2.93s5.21-1.07,7.07-2.93c1.86-1.86,2.93-4.44,2.93-7.07
			S456.93,314.794,455.07,312.934z"/>
	</g>
</g>
<g>
	<g>
		<path d="M71.07,312.933c-1.86-1.86-4.44-2.93-7.07-2.93c-2.63,0.001-5.21,1.07-7.07,2.93s-2.93,4.44-2.93,7.07
			s1.07,5.21,2.93,7.07s4.44,2.93,7.07,2.93c2.63,0,5.21-1.07,7.07-2.93s2.93-4.44,2.93-7.07S72.93,314.793,71.07,312.933z"/>
	</g>
</g>
<g>
	<g>
		<path d="M233.44,77.933c-1.86-1.86-4.44-2.92-7.08-2.92c-2.63,0-5.21,1.06-7.07,2.92c-1.86,1.86-2.92,4.44-2.92,7.08
			c0,2.63,1.06,5.21,2.92,7.07c1.86,1.86,4.44,2.93,7.07,2.93c2.64,0,5.21-1.07,7.08-2.93c1.86-1.86,2.93-4.44,2.93-7.07
			C236.37,82.373,235.3,79.803,233.44,77.933z"/>
	</g>
</g>
<g>
	<g>
		<path d="M295.28,77.933c-1.86-1.86-4.44-2.92-7.07-2.92c-2.64,0-5.21,1.06-7.08,2.92c-1.86,1.87-2.92,4.44-2.92,7.08
			c0,2.63,1.06,5.21,2.92,7.07c1.87,1.86,4.44,2.93,7.08,2.93c2.63,0,5.21-1.07,7.07-2.93c1.86-1.86,2.93-4.44,2.93-7.07
			C298.21,82.373,297.14,79.803,295.28,77.933z"/>
	</g>
</g>
<g>
	<g>
		<path d="M351.36,67.516c-1.833-5.21-7.542-7.947-12.752-6.114s-7.947,7.543-6.114,12.752c3.034,8.623,4.573,17.678,4.573,26.917
			c0,44.701-36.366,81.067-81.067,81.067s-81.067-36.367-81.067-81.067c0-44.7,36.366-81.067,81.067-81.067
			c8.75,0,17.354,1.384,25.571,4.112c5.243,1.742,10.902-1.097,12.642-6.338c1.741-5.242-1.097-10.901-6.338-12.642
			C277.621,1.73,266.896,0.004,256,0.004c-55.729,0-101.067,45.338-101.067,101.067c0,55.729,45.338,101.067,101.067,101.067
			s101.067-45.339,101.067-101.067C357.067,89.566,355.147,78.277,351.36,67.516z"/>
	</g>
</g>
<g>
	<g>
		<path d="M328.983,31.155c-0.268-0.28-0.539-0.559-0.811-0.837c-3.863-3.947-10.194-4.014-14.142-0.152
			c-3.947,3.863-4.015,10.194-0.152,14.142c0.222,0.226,0.442,0.453,0.661,0.681c1.964,2.051,4.591,3.083,7.223,3.083
			c2.487,0,4.978-0.922,6.916-2.778C332.666,41.474,332.803,35.144,328.983,31.155z"/>
	</g>
</g>
<g>
	<g>
		<path d="M283.637,121.152c-3.905-3.905-10.237-3.905-14.143,0c-6.73,6.732-17.685,6.733-24.417,0
			c-3.905-3.905-10.237-3.905-14.143,0c-3.905,3.905-3.905,10.237,0,14.143c7.265,7.264,16.808,10.897,26.352,10.897
			c9.543,0,19.086-3.633,26.351-10.897C287.542,131.39,287.542,125.058,283.637,121.152z"/>
	</g>
</g>
<g>
	<g>
		<path d="M441.169,40.004h-6.859c-5.523,0-10,4.477-10,10s4.477,10,10,10h6.859c5.523,0,10-4.477,10-10
			S446.692,40.004,441.169,40.004z"/>
	</g>
</g>
<g>
	<g>
		<path d="M489.69,40.004h-6.859c-5.523,0-10,4.477-10,10s4.477,10,10,10h6.859c5.523,0,10-4.477,10-10
			S495.213,40.004,489.69,40.004z"/>
	</g>
</g>
<g>
	<g>
		<path d="M462,60.834c-5.523,0-10,4.477-10,10v6.859c0,5.523,4.477,10,10,10s10-4.477,10-10v-6.859
			C472,65.311,467.523,60.834,462,60.834z"/>
	</g>
</g>
<g>
	<g>
		<path d="M462,12.314c-5.523,0-10,4.477-10,10v6.859c0,5.523,4.477,10,10,10s10-4.477,10-10v-6.859
			C472,16.791,467.523,12.314,462,12.314z"/>
	</g>
</g>
<g>
	<g>
		<path d="M16.859,118.211H10c-5.523,0-10,4.477-10,10c0,5.523,4.477,10,10,10h6.859c5.523,0,10-4.477,10-10
			C26.859,122.688,22.382,118.211,16.859,118.211z"/>
	</g>
</g>
<g>
	<g>
		<path d="M65.38,118.211h-6.859c-5.523,0-10,4.477-10,10c0,5.523,4.477,10,10,10h6.859c5.523,0,10-4.477,10-10
			C75.38,122.688,70.903,118.211,65.38,118.211z"/>
	</g>
</g>
<g>
	<g>
		<path d="M37.69,139.041c-5.523,0-10,4.477-10,10v6.859c0,5.523,4.477,10,10,10s10-4.477,10-10v-6.859
			C47.69,143.518,43.213,139.041,37.69,139.041z"/>
	</g>
</g>
<g>
	<g>
		<path d="M37.69,90.521c-5.523,0-10,4.477-10,10v6.859c0,5.523,4.477,10,10,10s10-4.477,10-10v-6.859
			C47.69,94.998,43.213,90.521,37.69,90.521z"/>
	</g>
</g>
<g>
</g>
<g>
</g>
<g>
</g>
<g>
</g>
<g>
</g>
<g>
</g>
<g>
</g>
<g>
</g>
<g>
</g>
<g>
</g>
<g>
</g>
<g>
</g>
<g>
</g>
<g>
</g>
<g>
</g>
</svg>

<?xml version="1.0" encoding="UTF-8" standalone="no"?>
<!DOCTYPE svg PUBLIC "-//W3C//DTD SVG 1.1//EN" "http://www.w3.org/Graphics/SVG/1.1/DTD/svg11.dtd">
<svg width="100%" height="100%" viewBox="0 0 513 513" version="1.1" xmlns="http://www.w3.org/2000/svg" xmlns:xlink="http://www.w3.org/1999/xlink" xml:space="preserve" xmlns:serif="http://www.serif.com/" style="fill-rule:evenodd;clip-rule:evenodd;stroke-linejoin:round;stroke-miterlimit:1.41421;">
    <path d="M510.66,331.614L418.294,171.631C415.532,166.848 409.417,165.208 404.634,167.971L337.524,206.717C335.227,208.043 333.551,210.227 332.865,212.789C332.483,214.215 332.436,215.692 332.689,217.118L319.333,217.118C307.818,217.118 296.556,221.8 288.433,229.963L270.963,247.522L258.764,232.844C250.457,222.849 238.239,217.117 225.243,217.117L179.313,217.117C179.565,215.69 179.519,214.214 179.137,212.788C178.45,210.226 176.775,208.042 174.478,206.716L107.368,167.97C102.584,165.209 96.469,166.847 93.708,171.63L71.417,210.239C68.655,215.022 70.294,221.138 75.077,223.899C79.86,226.661 85.977,225.023 88.737,220.239L106.028,190.29L155.818,219.036L73.45,361.7L23.66,332.954L42.217,300.812C44.979,296.029 43.34,289.913 38.557,287.152C33.776,284.391 27.659,286.029 24.897,290.812L1.34,331.614C0.014,333.911 -0.346,336.64 0.341,339.202C1.028,341.764 2.703,343.948 5,345.274L72.11,384.02C73.644,384.905 75.37,385.36 77.11,385.36C77.977,385.36 78.847,385.247 79.698,385.019C82.26,384.332 84.444,382.657 85.77,380.36L86.679,378.786L113.609,394.682C113.572,401.443 115.91,408.242 120.713,413.709C125.397,419.04 131.638,422.209 138.168,423.137C138.241,429.973 140.727,436.487 145.287,441.676C149.847,446.865 155.987,450.17 162.756,451.121C162.836,457.715 165.176,464.312 169.86,469.642C174.548,474.977 180.795,478.148 187.33,479.073C187.406,485.672 189.747,492.276 194.434,497.611C200.082,504.039 207.996,507.325 215.947,507.325C222.477,507.325 229.032,505.109 234.378,500.596C234.522,500.483 234.663,500.365 234.801,500.242L250.722,486.145C251.796,487.788 253.052,489.347 254.494,490.789L267.222,503.517C272.876,509.17 280.302,511.997 287.728,511.997C295.154,511.997 302.581,509.17 308.234,503.517C313.37,498.381 316.165,491.781 316.635,485.048C323.368,484.578 329.968,481.783 335.104,476.647C340.24,471.511 343.035,464.911 343.505,458.178C350.238,457.708 356.838,454.913 361.974,449.777C367.11,444.641 369.905,438.041 370.375,431.308C377.108,430.838 383.708,428.043 388.844,422.907C397.225,414.526 399.387,402.25 395.343,391.853L422.318,373.586L426.23,380.361C427.556,382.658 429.74,384.334 432.302,385.02C433.154,385.248 434.024,385.361 434.89,385.361C436.63,385.361 438.357,384.906 439.89,384.021L507,345.275C511.783,342.513 513.422,336.397 510.66,331.614ZM294.092,489.374C290.583,492.884 284.873,492.884 281.364,489.374L268.636,476.646C266.936,474.946 266,472.686 266,470.282C266,467.878 266.936,465.618 268.636,463.918C270.336,462.218 272.596,461.282 275,461.282C277.404,461.282 279.664,462.218 281.364,463.918L294.092,476.646C297.601,480.155 297.601,485.865 294.092,489.374ZM320.962,462.504C317.453,466.014 311.743,466.014 308.234,462.504L295.506,449.776C293.806,448.076 292.87,445.816 292.87,443.412C292.87,441.008 293.806,438.748 295.506,437.048C297.206,435.348 299.466,434.412 301.87,434.412C304.274,434.412 306.534,435.348 308.234,437.048L320.962,449.776C324.471,453.285 324.471,458.995 320.962,462.504ZM347.832,435.633C344.323,439.142 338.614,439.143 335.104,435.633L322.376,422.905C320.676,421.205 319.74,418.945 319.74,416.541C319.74,414.137 320.676,411.877 322.376,410.177C324.076,408.477 326.336,407.541 328.74,407.541C331.144,407.541 333.404,408.477 335.104,410.177L347.832,422.905C351.341,426.415 351.341,432.125 347.832,435.633ZM374.702,408.763C371.193,412.273 365.484,412.272 361.975,408.763L349.247,396.035C345.738,392.526 345.738,386.816 349.247,383.307C351.001,381.552 353.306,380.675 355.611,380.675C357.915,380.675 360.22,381.552 361.975,383.306L374.703,396.035C378.211,399.545 378.211,405.254 374.702,408.763ZM383.004,376.054L376.116,369.166C364.808,357.859 346.41,357.86 335.104,369.166C329.968,374.302 327.173,380.902 326.703,387.635C319.97,388.105 313.37,390.9 308.234,396.036C303.098,401.172 300.303,407.772 299.833,414.505C293.1,414.975 286.5,417.77 281.364,422.906C276.228,428.042 273.433,434.642 272.963,441.375C266.23,441.845 259.63,444.64 254.494,449.776C250.781,453.489 248.295,457.969 247.021,462.71L221.872,484.977C221.785,485.048 221.7,485.121 221.615,485.195C218.048,488.329 212.594,487.978 209.458,484.409C206.323,480.841 206.675,475.387 210.243,472.252C210.583,471.953 239.214,444.193 239.214,444.193C243.138,440.307 243.168,433.975 239.281,430.051C235.395,426.127 229.063,426.096 225.139,429.984C225.139,429.984 199.243,455.662 199.077,455.853C198.361,456.222 197.673,456.672 197.041,457.228C193.474,460.363 188.02,460.011 184.884,456.441C181.749,452.873 182.101,447.42 185.669,444.285C186.663,443.411 187.429,442.379 187.99,441.266L215.355,413.843C219.256,409.934 219.25,403.602 215.34,399.701C211.432,395.8 205.1,395.806 201.198,399.716L172.143,428.832C171.671,429.305 171.26,429.814 170.902,430.349C169.485,431.124 167.879,431.49 166.228,431.386C163.932,431.238 161.831,430.203 160.311,428.474C158.792,426.745 158.037,424.529 158.186,422.233C158.334,419.937 159.367,417.837 161.096,416.318C161.171,416.252 161.235,416.179 161.307,416.111C161.395,416.029 161.488,415.955 161.574,415.869L193.31,384.066C197.211,380.157 197.205,373.825 193.295,369.924C189.386,366.023 183.054,366.029 179.153,369.939L147.75,401.408C144.181,404.411 138.832,404.029 135.737,400.507C132.602,396.939 132.954,391.485 136.522,388.35C136.812,388.096 164.439,361.474 164.439,361.474C168.438,357.665 168.592,351.335 164.783,347.336C160.973,343.336 154.643,343.182 150.645,346.992C150.645,346.992 121.495,375.057 120.878,375.747L96.681,361.463L168.473,237.116L225.243,237.116C232.276,237.116 238.888,240.218 243.384,245.627L283.857,294.321C286.137,297.064 286.992,300.632 286.204,304.11C285.416,307.589 283.105,310.44 279.866,311.932C275.616,313.89 270.675,313.076 267.278,309.856L223.881,268.735C219.872,264.936 213.543,265.106 209.744,269.116C205.945,273.125 206.116,279.454 210.125,283.253L212.925,285.906C205.055,301.584 188.181,311.351 170.45,310.002L170.238,309.986C164.731,309.564 159.927,313.692 159.509,319.199C159.09,324.706 163.215,329.51 168.722,329.928L168.937,329.944C170.523,330.065 172.101,330.124 173.675,330.124C195.712,330.124 216.306,318.506 227.878,300.074L253.523,324.374C259.502,330.039 267.213,333.003 275.059,333.003C279.505,333.003 283.995,332.05 288.233,330.098C297.166,325.984 303.537,318.123 305.711,308.531C307.885,298.939 305.526,289.1 299.24,281.537L283.808,262.97L302.614,244.068C307.01,239.65 313.105,237.116 319.336,237.116L343.533,237.116L412.297,356.218L383.004,376.054ZM438.55,361.7L356.183,219.037L405.973,190.291L488.339,332.954L438.55,361.7Z" style="fill:rgb(169,0,0);fill-rule:nonzero;"/>
    <path d="M61.469,247.471C56.686,244.709 50.57,246.346 47.808,251.128L47.158,252.254C44.396,257.038 46.033,263.154 50.815,265.916C52.391,266.826 54.11,267.258 55.808,267.258C59.263,267.258 62.624,265.466 64.476,262.258L65.126,261.132C67.888,256.349 66.251,250.233 61.469,247.471Z" style="fill:rgb(169,0,0);fill-rule:nonzero;"/>
    <path d="M455.07,312.934C453.21,311.074 450.63,310.004 448,310.004C445.37,310.004 442.79,311.074 440.93,312.934C439.07,314.794 438,317.374 438,320.004C438,322.634 439.07,325.214 440.93,327.074C442.79,328.933 445.37,330.004 448,330.004C450.63,330.004 453.21,328.934 455.07,327.074C456.93,325.214 458,322.634 458,320.004C458,317.374 456.93,314.794 455.07,312.934Z" style="fill:rgb(169,0,0);fill-rule:nonzero;"/>
    <path d="M71.07,312.933C69.21,311.073 66.63,310.003 64,310.003C61.37,310.004 58.79,311.073 56.93,312.933C55.07,314.793 54,317.373 54,320.003C54,322.633 55.07,325.213 56.93,327.073C58.79,328.933 61.37,330.003 64,330.003C66.63,330.003 69.21,328.933 71.07,327.073C72.93,325.213 74,322.633 74,320.003C74,317.373 72.93,314.793 71.07,312.933Z" style="fill:rgb(169,0,0);fill-rule:nonzero;"/>
    <path d="M233.44,77.933C231.58,76.073 229,75.013 226.36,75.013C223.73,75.013 221.15,76.073 219.29,77.933C217.43,79.793 216.37,82.373 216.37,85.013C216.37,87.643 217.43,90.223 219.29,92.083C221.15,93.943 223.73,95.013 226.36,95.013C229,95.013 231.57,93.943 233.44,92.083C235.3,90.223 236.37,87.643 236.37,85.013C236.37,82.373 235.3,79.803 233.44,77.933Z" style="fill:rgb(169,0,0);fill-rule:nonzero;"/>
    <path d="M295.28,77.933C293.42,76.073 290.84,75.013 288.21,75.013C285.57,75.013 283,76.073 281.13,77.933C279.27,79.803 278.21,82.373 278.21,85.013C278.21,87.643 279.27,90.223 281.13,92.083C283,93.943 285.57,95.013 288.21,95.013C290.84,95.013 293.42,93.943 295.28,92.083C297.14,90.223 298.21,87.643 298.21,85.013C298.21,82.373 297.14,79.803 295.28,77.933Z" style="fill:rgb(169,0,0);fill-rule:nonzero;"/>
    <path d="M351.36,67.516C349.527,62.306 343.818,59.569 338.608,61.402C333.398,63.235 330.661,68.945 332.494,74.154C335.528,82.777 337.067,91.832 337.067,101.071C337.067,145.772 300.701,182.138 256,182.138C211.299,182.138 174.933,145.771 174.933,101.071C174.933,56.371 211.299,20.004 256,20.004C264.75,20.004 273.354,21.388 281.571,24.116C286.814,25.858 292.473,23.019 294.213,17.778C295.954,12.536 293.116,6.877 287.875,5.136C277.621,1.73 266.896,0.004 256,0.004C200.271,0.004 154.933,45.342 154.933,101.071C154.933,156.8 200.271,202.138 256,202.138C311.729,202.138 357.067,156.799 357.067,101.071C357.067,89.566 355.147,78.277 351.36,67.516Z" style="fill:rgb(169,0,0);fill-rule:nonzero;"/>
    <path d="M328.983,31.155C328.715,30.875 328.444,30.596 328.172,30.318C324.309,26.371 317.978,26.304 314.03,30.166C310.083,34.029 310.015,40.36 313.878,44.308C314.1,44.534 314.32,44.761 314.539,44.989C316.503,47.04 319.13,48.072 321.762,48.072C324.249,48.072 326.74,47.15 328.678,45.294C332.666,41.474 332.803,35.144 328.983,31.155Z" style="fill:rgb(169,0,0);fill-rule:nonzero;"/>
    <path d="M283.637,121.152C279.732,117.247 273.4,117.247 269.494,121.152C262.764,127.884 251.809,127.885 245.077,121.152C241.172,117.247 234.84,117.247 230.934,121.152C227.029,125.057 227.029,131.389 230.934,135.295C238.199,142.559 247.742,146.192 257.286,146.192C266.829,146.192 276.372,142.559 283.637,135.295C287.542,131.39 287.542,125.058 283.637,121.152Z" style="fill:rgb(169,0,0);fill-rule:nonzero;"/>
    <path d="M441.169,40.004L434.31,40.004C428.787,40.004 424.31,44.481 424.31,50.004C424.31,55.527 428.787,60.004 434.31,60.004L441.169,60.004C446.692,60.004 451.169,55.527 451.169,50.004C451.169,44.481 446.692,40.004 441.169,40.004Z" style="fill:rgb(169,0,0);fill-rule:nonzero;"/>
    <path d="M489.69,40.004L482.831,40.004C477.308,40.004 472.831,44.481 472.831,50.004C472.831,55.527 477.308,60.004 482.831,60.004L489.69,60.004C495.213,60.004 499.69,55.527 499.69,50.004C499.69,44.481 495.213,40.004 489.69,40.004Z" style="fill:rgb(169,0,0);fill-rule:nonzero;"/>
    <path d="M462,60.834C456.477,60.834 452,65.311 452,70.834L452,77.693C452,83.216 456.477,87.693 462,87.693C467.523,87.693 472,83.216 472,77.693L472,70.834C472,65.311 467.523,60.834 462,60.834Z" style="fill:rgb(169,0,0);fill-rule:nonzero;"/>
    <path d="M462,12.314C456.477,12.314 452,16.791 452,22.314L452,29.173C452,34.696 456.477,39.173 462,39.173C467.523,39.173 472,34.696 472,29.173L472,22.314C472,16.791 467.523,12.314 462,12.314Z" style="fill:rgb(169,0,0);fill-rule:nonzero;"/>
    <path d="M16.859,118.211L10,118.211C4.477,118.211 0,122.688 0,128.211C0,133.734 4.477,138.211 10,138.211L16.859,138.211C22.382,138.211 26.859,133.734 26.859,128.211C26.859,122.688 22.382,118.211 16.859,118.211Z" style="fill:rgb(169,0,0);fill-rule:nonzero;"/>
    <path d="M65.38,118.211L58.521,118.211C52.998,118.211 48.521,122.688 48.521,128.211C48.521,133.734 52.998,138.211 58.521,138.211L65.38,138.211C70.903,138.211 75.38,133.734 75.38,128.211C75.38,122.688 70.903,118.211 65.38,118.211Z" style="fill:rgb(169,0,0);fill-rule:nonzero;"/>
    <path d="M37.69,139.041C32.167,139.041 27.69,143.518 27.69,149.041L27.69,155.9C27.69,161.423 32.167,165.9 37.69,165.9C43.213,165.9 47.69,161.423 47.69,155.9L47.69,149.041C47.69,143.518 43.213,139.041 37.69,139.041Z" style="fill:rgb(169,0,0);fill-rule:nonzero;"/>
    <path d="M37.69,90.521C32.167,90.521 27.69,94.998 27.69,100.521L27.69,107.38C27.69,112.903 32.167,117.38 37.69,117.38C43.213,117.38 47.69,112.903 47.69,107.38L47.69,100.521C47.69,94.998 43.213,90.521 37.69,90.521Z" style="fill:rgb(169,0,0);fill-rule:nonzero;"/>
</svg>
